X:1
T:Jesus, Priceless Treasure
T:Text: Johann Franck, 1653; tr. Catherine Winkworth, 1863, alt. Tune: Johann Crüger, 1653
T:665 665 786 JESU, MEINE FREUDE www.hymnary.org/text/jesus_priceless_treasure
T:Jesus, Priceless Treasure
T:This hymn is in the public domain.  You may freely use this score for personal and congregational worship.  If you reproduce the score, please credit Hymnary.org as the source. 
T:This hymn is in the public domain.  You may freely use this score for personal and congregational worship.  If you reproduce the score, please credit Hymnary.org as the source. 
T:This hymn is in the public domain.  You may freely use this score for personal and congregational worship.  If you reproduce the score, please credit Hymnary.org as the source. 
Z:This hymn is in the public domain.  You may freely use this score for personal and congregational worship.  If you reproduce the score, please credit Hymnary.org as the source.
%%score ( 1 2 ) ( 3 4 )
L:1/8
M:4/4
K:Eb
V:1 treble nm="SOPRANO ALTO" snm="S. A."
V:2 treble 
V:3 bass nm="TENOR BASS" snm="T. B."
V:4 bass 
V:1
"^1""^2""^3""^4" G2 G2 F2 E2 | D4 C4 | G2 G2 =A2 =B2 | c4 =B4 | c2 e2 d2 d2 | c8 | G2 G2 F2 E2 | %7
w: Je- sus, price- less|trea- sure,|source of pur- est|plea- sure,|friend most sure and|true:|long my heart was|
w: Let your arms en-|fold me:|those who try to|wound me|can- not reach me|here.|Though the earth be|
w: Hence, all world- ly|trea- sure!|Je- sus is my|plea- sure,|Je- sus is my|choice.|Hence, all emp- ty|
w: Ban- ish thoughts of|sad- ness,|for the Lord of|glad- ness,|Je- sus, en- ters|in;|though the clouds may|
 D4 C4 |1 G2 G2 =A2 =B2 | c4 =B4 | c2 e2 d2 d2 ||"^Page 2" c8 | G2 G2 A2 G2 | F3 F E4 | %14
w: burn- ing,|faint- ing much and|yearn- ing,|thirst- ing, Lord, for|you.|Yours I am, O|spot- less Lamb,|
w: shak- ing,|ev- ery heart be|quak- ing,|Je- sus calms my|fear.|Fires may flah and|thun- der crash;|
w: glo- ry!|What to me your|sto- ry|told with tempt- ing|voice?|Pain or loss or|shame or cross|
w: gath- er,|those who love the|Sav- ior|still have peace with-|in.|Though I bear much|sor- row here,|
 G2"^Jesus, Priceless Treasure" G2 =A2 B2 | c2 B2 A4 G4 | E2 E2 F2 E2 | D4 C4 |] %18
w: so will I let|noth- ing hide you,|seek no joy be-|side you!|
w: yea, though sin and|hell as- ail me,|Je- sus will not|fail me.|
w: shall not from my|Sav- ior move me,|since he chose to|love me.|
w: still in you lies|pur- est plea- sure,|Je- sus, price- less|trea- sure!|
V:2
 C2 C2 C2 C2 | (C2 =B,2) G,4 | C2 E2 F2 F2 | G4 G4 | G2 G2 G2 G2 | E8 | C2 C2 C2 C2 | %7
 (C2 =B,2) G,4 |1 C2 E2 F2 F2 | G4 G4 | G2 G2 G2 G2 || E8 | B,2 E2 E2 E2 | E2 D2 B,4 | %14
 E2 D2 D2 D2 | E2 D2 D4 =B,4 | C2 C2 C2 C2 | (C2 =B,2) G,4 |] %18
V:3
 E,2 E,2 F,2 G,2 | G,4 E,4 | G,2 C2 C2 D2 | (C2 E2) D4 | C2 C2 C2 =B,2 | C8 | E,2 E,2 F,2 G,2 | %7
 G,4 E,4 |1 G,2 C2 C2 D2 | (C2 E2) D4 | C2 C2 C2 =B,2 || C8 | E,2 B,2 A,2 B,2 | C2 B,2 G,4 | %14
 G,2 G,2 ^F,2 G,2 | G,2 G,2 (G,2 ^F,2) G,4 | G,2 G,2 =F,2 G,2 | G,4 E,4 |] %18
V:4
 C,2 C,2 A,,2 C,2 | G,,4 C,4 | E,2 C,2 F,2 D,2 | (E,2 C,2) G,4 | E,2 C,2 G,2 G,2 | C,8 | %6
 C,2 C,2 A,,2 C,2 | G,,4 C,4 |1 E,2 C,2 F,2 D,2 | (E,2 C,2) G,4 | E,2 C,2 G,2 G,2 || C,8 | %12
 E,2 E,2 C,2 E,2 | A,,2 B,,2 E,4 | C,2 B,,2 D,2 G,,2 | C,2 G,,2 D,4 G,,4 | C,2 B,,2 A,,2 C,2 | %17
 G,,4 C,4 |] %18

